src/status/symbolic/battery-full-charging-symbolic.svg

<svg width="16" height="16" version="1.1" xmlns="http://www.w3.org/2000/svg">
 <g fill="#363636">
  <path d="m6.834 4-3.334 5h3l-0.75 3h0.41602l3.334-5h-3l0.75-3z"/>
  <g>
   <path d="m2 3c-1.108 0-2 0.892-2 2v6c0 1.108 0.892 2 2 2h9c1.108 0 2-0.892 2-2v-6c0-1.108-0.892-2-2-2zm0 1h9c0.554 0 1 0.446 1 1v6c0 0.554-0.446 1-1 1h-9c-0.554 0-1-0.446-1-1v-6c0-0.554 0.446-1 1-1z"/>
   <path d="m2.5469 5c-0.30312 0-0.54688 0.24253-0.54688 0.54492v4.9102c0 0.3024 0.24375 0.54492 0.54688 0.54492h2.4219l0.25-1h-1.7188c-0.79859-1.712e-4 -1.2749-0.89013-0.83203-1.5547l2.2969-3.4453h-2.418zm5.4844 0-0.25 1h1.7188c0.79859 1.713e-4 1.2749 0.89013 0.83203 1.5547l-2.2969 3.4453h2.418c0.30312 0 0.54688-0.24253 0.54688-0.54492v-4.9102c0-0.3024-0.24375-0.54492-0.54688-0.54492h-2.4219z" class="success" fill="#33d17a"/>
   <path d="m14 6v4a2 2 0 0 0 2-2 2 2 0 0 0-2-2z"/>
  </g>
 </g>
</svg>

<svg xmlns="http://www.w3.org/2000/svg" width="16" height="16">
    <g fill="#050505" opacity=".7">
        <path d="M6.834 4 3.5 9h3l-.75 3h.416L9.5 7h-3l.75-3z"/>
        <path d="M2 3C.892 3 0 3.892 0 5v6c0 1.108.892 2 2 2h9c1.108 0 2-.892 2-2V5c0-1.108-.892-2-2-2zm0 1h9c.554 0 1 .446 1 1v6c0 .554-.446 1-1 1H2c-.554 0-1-.446-1-1V5c0-.554.446-1 1-1z"/>
        <path fill="#add49f" d="M2.547 5A.544.544 0 0 0 2 5.545v4.91c0 .303.244.545.547.545h2.422l.25-1H3.5a1 1 0 0 1-.832-1.555L4.965 5H2.547zM8.03 5l-.25 1h1.72a1 1 0 0 1 .831 1.555L8.035 11h2.418a.544.544 0 0 0 .547-.545v-4.91A.544.544 0 0 0 10.453 5H8.031z" class="success"/>
        <path d="M14 6v4a2 2 0 0 0 2-2 2 2 0 0 0-2-2z"/>
    </g>
</svg>
